svgs/bereal.svg

<svg width="24" height="24" viewBox="0 0 24 24" fill="none" xmlns="http://www.w3.org/2000/svg">
<path fill-rule="evenodd" clip-rule="evenodd" d="M19.8144 11.9606V14.1812H20.2655H20.7165L20.7121 11.9652L20.7077 9.74925L20.2611 9.74462L19.8144 9.73999V11.9606ZM2 11.9695V14.1831L3.09714 14.1763C4.26718 14.169 4.25828 14.1696 4.5192 14.079C4.85469 13.9625 5.129 13.7362 5.25801 13.4696C5.34857 13.2824 5.38248 13.1199 5.38248 12.8732C5.38248 12.6429 5.34337 12.4649 5.25736 12.3035C5.18416 12.1661 4.96482 11.9361 4.82467 11.8497L4.71466 11.7818L4.8314 11.6622C5.05783 11.4302 5.14227 11.1717 5.10626 10.8208C5.04893 10.262 4.78971 9.97276 4.20314 9.81295L4.03816 9.768L3.01908 9.76195L2 9.75591V11.9695ZM9.52819 11.9695V14.1812H9.95317H10.3781V13.3399V12.4986H10.774H11.1699L11.6356 13.3399L12.1014 14.1812H12.5513C12.9245 14.1812 12.9996 14.1771 12.992 14.1575C12.987 14.1444 12.7509 13.7291 12.4672 13.2346C12.1836 12.7401 11.9482 12.3225 11.944 12.3067C11.9387 12.2863 11.9657 12.2616 12.0376 12.2212C12.1779 12.1425 12.4543 11.8606 12.5263 11.7228C12.6347 11.5151 12.654 11.4363 12.6633 11.1619C12.6707 10.9447 12.6669 10.8893 12.636 10.767C12.5414 10.3929 12.3513 10.1707 11.9653 9.98282C11.5469 9.77916 11.395 9.75817 10.3391 9.75803L9.52819 9.75793V11.9695ZM3.82109 10.4961C4.10153 10.5622 4.2097 10.7043 4.211 11.0081C4.21155 11.1399 4.20572 11.1682 4.15958 11.258C4.12246 11.3303 4.08345 11.3759 4.02354 11.4171C3.86141 11.5285 3.67474 11.5606 3.18387 11.5614L2.84996 11.5619V11.0155V10.4691L3.27927 10.4694C3.60311 10.4696 3.73624 10.4761 3.82109 10.4961ZM11.2194 10.4953C11.4792 10.5501 11.6567 10.683 11.7307 10.8782C11.7752 10.9958 11.7859 11.2431 11.7516 11.3635C11.7009 11.5416 11.5476 11.6794 11.3148 11.7563C11.2156 11.7891 11.1527 11.7944 10.7901 11.8007L10.3781 11.808V11.1385V10.4691L10.7381 10.4694C10.988 10.4696 11.1351 10.4775 11.2194 10.4953ZM7.14454 10.9555C6.86581 10.9994 6.60314 11.1097 6.41518 11.2619C6.08546 11.5288 5.88026 11.9546 5.85271 12.4292C5.81424 13.0921 5.99431 13.5558 6.42661 13.907C6.75901 14.1771 7.33353 14.3153 7.8242 14.2433C8.0783 14.206 8.28905 14.1452 8.46141 14.0595C8.69304 13.9444 8.68338 13.9793 8.5656 13.6826C8.50973 13.5418 8.45376 13.4017 8.44121 13.3712L8.4184 13.3159L8.30982 13.3647C7.90987 13.5446 7.54505 13.5799 7.24515 13.4677C7.03714 13.3899 6.86097 13.2065 6.78657 12.9902C6.76801 12.9363 6.75282 12.8855 6.75282 12.8775C6.75282 12.8695 7.22992 12.8629 7.81304 12.8629H8.87327L8.86463 12.5463C8.8574 12.2815 8.84879 12.2024 8.81199 12.0626C8.65693 11.4738 8.33814 11.1108 7.86794 10.9877C7.71216 10.947 7.31187 10.9291 7.14454 10.9555ZM14.4993 10.9555C14.2205 10.9994 13.9579 11.1097 13.7699 11.2619C13.4402 11.5288 13.235 11.9546 13.2074 12.4292C13.169 13.0921 13.349 13.5558 13.7813 13.907C14.1137 14.1771 14.6883 14.3153 15.1789 14.2433C15.433 14.206 15.6438 14.1452 15.8161 14.0595C16.0478 13.9444 16.0381 13.9793 15.9203 13.6826C15.8645 13.5418 15.8085 13.4017 15.7959 13.3712L15.7731 13.3159L15.6645 13.3647C15.2646 13.5446 14.8998 13.5799 14.5999 13.4677C14.3919 13.3899 14.2157 13.2065 14.1413 12.9902C14.1227 12.9363 14.1075 12.8855 14.1075 12.8775C14.1075 12.8695 14.5846 12.8629 15.1678 12.8629H16.228L16.2194 12.5463C16.2121 12.2815 16.2035 12.2024 16.1667 12.0626C16.0117 11.4738 15.6929 11.1108 15.2227 10.9877C15.0669 10.947 14.6666 10.9291 14.4993 10.9555ZM17.7123 10.9898C17.5313 11.0183 17.396 11.0603 17.2354 11.1378C16.903 11.2981 16.6902 11.5819 16.6471 11.9222L16.6355 12.0136L17.031 12.0089L17.4265 12.0042L17.4502 11.9329C17.4866 11.8238 17.5771 11.7305 17.7014 11.6739C17.7983 11.6299 17.831 11.624 17.9844 11.6236C18.129 11.6232 18.1722 11.6297 18.2446 11.6628C18.4317 11.7485 18.4978 11.8581 18.5097 12.1028L18.518 12.2707L18.4593 12.2798C18.4271 12.2848 18.2368 12.2974 18.0364 12.3078C17.4469 12.3384 17.2435 12.376 16.9906 12.5011C16.671 12.6594 16.5013 12.9292 16.5013 13.2792C16.5013 13.8109 16.9093 14.2027 17.4899 14.2285C17.7219 14.2388 17.8827 14.2063 18.0794 14.1093C18.2238 14.0381 18.3898 13.8958 18.4911 13.7562L18.5289 13.7042L18.5298 13.9427L18.5308 14.1812H18.9471H19.3634L19.3631 13.058C19.3628 12.1375 19.3582 11.9129 19.3373 11.8134C19.2546 11.4193 18.9543 11.1385 18.4913 11.0224C18.3293 10.9817 17.882 10.963 17.7123 10.9898ZM7.69806 11.734C7.75809 11.7636 7.83624 11.8199 7.87171 11.8592C7.94744 11.943 8.03027 12.1123 8.04664 12.2167L8.05821 12.2904H7.40434C6.78975 12.2904 6.75102 12.2886 6.7595 12.2601C6.76446 12.2434 6.77395 12.2063 6.78059 12.1777C6.83532 11.9418 7.01212 11.7525 7.23728 11.6886C7.37003 11.6509 7.56914 11.6706 7.69806 11.734ZM15.0528 11.734C15.1128 11.7636 15.191 11.8199 15.2264 11.8592C15.3022 11.943 15.385 12.1123 15.4014 12.2167L15.4129 12.2904H14.7591C14.1445 12.2904 14.1057 12.2886 14.1142 12.2601C14.1192 12.2434 14.1287 12.2063 14.1353 12.1777C14.19 11.9418 14.3669 11.7525 14.592 11.6886C14.7248 11.6509 14.9239 11.6706 15.0528 11.734ZM4.0714 12.2799C4.34475 12.3695 4.47742 12.5417 4.49376 12.8284C4.50992 13.112 4.41906 13.275 4.18014 13.3909C4.01147 13.4728 3.8812 13.4873 3.31705 13.4873H2.84996V12.8608V12.2343L3.41804 12.2432C3.87547 12.2503 4.00272 12.2575 4.0714 12.2799ZM18.5134 12.9551C18.5134 13.0345 18.5019 13.1379 18.4877 13.185C18.4099 13.4435 18.1092 13.6252 17.793 13.6049C17.5669 13.5904 17.4146 13.4876 17.3698 13.3193C17.3109 13.0976 17.4664 12.912 17.7523 12.8629C17.8637 12.8437 18.2037 12.8179 18.405 12.8133L18.5134 12.8108V12.9551ZM21.1674 13.7388V14.1812H21.5837H22V13.7388V13.2965H21.5837H21.1674V13.7388Z" fill="black"/>
</svg>

<svg xmlns="http://www.w3.org/2000/svg" width="24" height="24" fill="none" viewBox="0 0 24 24"><path fill="#000" fill-rule="evenodd" d="M19.814 11.96v2.221h.902l-.004-2.216-.004-2.216-.447-.004-.447-.005v2.22M2 11.97v2.213l1.097-.007c1.17-.007 1.161-.006 1.422-.097.336-.117.61-.343.739-.61.09-.187.124-.35.124-.596 0-.23-.039-.408-.125-.57a1.582 1.582 0 0 0-.432-.453l-.11-.068.116-.12c.227-.232.311-.49.275-.841-.057-.559-.316-.848-.903-1.008l-.165-.045-1.019-.006L2 9.756zm7.528 0v2.211h.85V12.5h.792l.466.84.465.842h.45c.373 0 .449-.004.441-.023a73.752 73.752 0 0 0-.525-.923 38.82 38.82 0 0 1-.523-.928c-.005-.02.022-.045.094-.086.14-.079.416-.36.488-.498.109-.208.128-.287.137-.561.008-.217.004-.273-.027-.395-.095-.374-.285-.596-.67-.784-.42-.204-.571-.225-1.627-.225h-.81v2.212m-5.707-1.474c.28.066.389.208.39.512 0 .132-.005.16-.051.25a.396.396 0 0 1-.136.16c-.163.11-.35.143-.84.143H2.85V10.47h.43c.323 0 .456.007.541.027m7.398 0c.26.054.438.187.512.382.044.118.055.365.02.486-.05.178-.203.315-.436.392-.1.033-.162.038-.525.045l-.412.007V10.47h.36c.25 0 .397.008.481.026m-4.074.46a1.568 1.568 0 0 0-.73.306c-.33.267-.535.693-.562 1.167-.039.663.141 1.127.574 1.478.332.27.907.408 1.397.336a2.1 2.1 0 0 0 .637-.184c.232-.115.222-.08.105-.376l-.125-.312-.023-.055-.108.049c-.4.18-.765.215-1.065.103a.796.796 0 0 1-.458-.478.903.903 0 0 1-.034-.113c0-.008.477-.014 1.06-.014h1.06l-.008-.317c-.008-.264-.016-.344-.053-.483-.155-.59-.474-.952-.944-1.075a2.6 2.6 0 0 0-.723-.032m7.354 0a1.568 1.568 0 0 0-.73.306c-.329.267-.534.693-.562 1.167-.038.663.142 1.127.574 1.478.333.27.907.408 1.398.336a2.12 2.12 0 0 0 .637-.184c.232-.115.222-.08.104-.376a43.47 43.47 0 0 0-.124-.312l-.023-.055-.108.049c-.4.18-.765.215-1.065.103a.796.796 0 0 1-.459-.478.9.9 0 0 1-.034-.113c0-.008.478-.014 1.06-.014h1.061l-.009-.317c-.007-.264-.016-.344-.052-.483-.155-.59-.474-.952-.944-1.075a2.6 2.6 0 0 0-.724-.032m3.213.034c-.18.028-.316.07-.477.148-.332.16-.545.444-.588.784l-.011.092.395-.005.396-.005.023-.071a.453.453 0 0 1 .251-.26c.097-.043.13-.049.283-.05.145 0 .188.007.26.04.188.085.254.195.266.44l.008.168-.059.009a9.535 9.535 0 0 1-.423.028c-.59.03-.793.068-1.045.193a.826.826 0 0 0-.49.778c0 .532.408.924.989.95.232.01.393-.023.59-.12a1.24 1.24 0 0 0 .411-.353l.038-.052v.239l.002.238h.832v-1.123c0-.92-.005-1.145-.026-1.245-.082-.394-.383-.675-.846-.79a2.98 2.98 0 0 0-.779-.033m-10.014.744a.69.69 0 0 1 .174.125.858.858 0 0 1 .175.358l.011.073h-.654c-.614 0-.653-.001-.644-.03l.02-.082a.662.662 0 0 1 .457-.49.726.726 0 0 1 .461.046m7.355 0c.06.03.138.086.173.125a.858.858 0 0 1 .175.358l.012.073h-.654c-.614 0-.653-.001-.645-.03.005-.017.015-.054.021-.082a.662.662 0 0 1 .457-.49.726.726 0 0 1 .46.046M4.07 12.28c.274.09.406.262.423.548.016.284-.075.447-.314.563-.169.082-.299.096-.863.096H2.85v-1.253l.568.01c.457.006.585.014.653.036Zm14.442.675c0 .08-.011.183-.025.23-.078.258-.379.44-.695.42-.226-.015-.378-.117-.423-.286-.06-.221.096-.407.382-.456.112-.02.452-.045.653-.05l.108-.002v.144m2.654.784v.442H22v-.885h-.833v.443" clip-rule="evenodd"/></svg>
